src/travel-places/transport-ground/1F6FA.svg

<?xml version="1.0" encoding="UTF-8"?>
<svg id="emoji" xmlns="http://www.w3.org/2000/svg" viewBox="0 0 72 72">
  <g id="grid">
    <path d="m68,3.8824v64H4V3.8824h64M72-.1176H0v72h72V-.1176Z" fill="#b3b3b3"/>
    <path d="m12.923,10.8407h46.1539c1.0621,0,1.9231.861,1.9231,1.9231v46.1538c0,1.0621-.861,1.9231-1.9231,1.9231H12.9231c-1.0621,0-1.9231-.861-1.9231-1.9231h0V12.7637c0-1.062.861-1.923,1.923-1.923Z" fill="none" stroke="#00a5ff" stroke-miterlimit="10" stroke-width=".1"/>
    <rect x="16" y="3.8824" width="40" height="64" rx="2.2537" ry="2.2537" fill="none" stroke="#00a5ff" stroke-miterlimit="10" stroke-width=".1"/>
    <rect x="4" y="15.8824" width="64" height="40" rx="2.2537" ry="2.2537" fill="none" stroke="#00a5ff" stroke-miterlimit="10" stroke-width=".1"/>
    <circle cx="36" cy="35.8824" r="29" fill="none" stroke="#00a5ff" stroke-miterlimit="10" stroke-width=".1"/>
  </g>
  <g id="color">
    <path d="m21.1281,18.9106s1.3542,23.9889,7.4804,25.4076l34.7581-1.2897.0645-22.1833s-.2579-1.5477-1.8056-1.8056-40.4974-.129-40.4974-.129Z" fill="#fff"/>
    <path d="m20.2992,19s-1.1617,18.5109,9.2929,25.5631h-10.5921s-7.0974-7.155,1.2992-25.5631Z" fill="#6a462f"/>
    <polygon points="44 38 64.22 38 64.22 43.514 43 43.514 43 38 44 38" fill="#6a462f"/>
    <circle cx="17.0818" cy="49.5632" r="5.0001" fill="#d0cfce"/>
    <circle cx="54.6092" cy="49.5632" r="5.0001" fill="#d0cfce"/>
  </g>
  <g id="line">
    <polyline points="23.718 37 27.588 37 28.389 29.575" fill="none" stroke="#000" stroke-linecap="round" stroke-linejoin="round" stroke-width="2"/>
    <path d="m64.22,44.5631H19l-1.5978-2.9631c-.9203-1.7066-1.4022-3.6152-1.4022-5.5542v-.7653c-.0462-1.5163.1564-3.0298.6-4.4805l2.4-8.8c0-1.4712,1.5288-4,3-4l39.5557.3893c1.4712-.0003,2.664,1.1921,2.6643,2.6633v23.5105Z" fill="none" stroke="#000" stroke-linecap="round" stroke-linejoin="round" stroke-width="2.0875"/>
    <line x1="45.7985" y1="48.4706" x2="25.2182" y2="48.4706" fill="none" stroke="#000" stroke-linecap="round" stroke-linejoin="round" stroke-width="2"/>
    <circle cx="17.0818" cy="49.5632" r="5.0001" fill="none" stroke="#000" stroke-linecap="round" stroke-linejoin="round" stroke-width="2"/>
    <circle cx="54.6092" cy="49.5632" r="5.0001" fill="none" stroke="#000" stroke-linecap="round" stroke-linejoin="round" stroke-width="2"/>
    <line x1="43" y1="19" x2="43" y2="44" fill="none" stroke="#000" stroke-linecap="round" stroke-linejoin="round" stroke-width="2.0875"/>
    <line x1="44" y1="35" x2="64.2195" y2="35" fill="none" stroke="#000" stroke-linecap="round" stroke-linejoin="round" stroke-width="2.0875"/>
    <polygon points="44 38 64.22 38 64.22 43.514 43 43.514 43 38 44 38" fill="none" stroke="#000" stroke-linecap="round" stroke-linejoin="round" stroke-width="2.0875"/>
    <line x1="61" y1="37" x2="62" y2="32" fill="none" stroke="#000" stroke-linecap="round" stroke-linejoin="round" stroke-width="2.0875"/>
    <path d="m20.2992,19s-1.1617,18.5109,9.2929,25.5631" fill="none" stroke="#000" stroke-linecap="round" stroke-linejoin="round" stroke-width="2"/>
    <line x1="25.6419" y1="37" x2="25.6419" y2="39.7847" fill="none" stroke="#000" stroke-linecap="round" stroke-linejoin="round" stroke-width="2"/>
    <path d="m60.072,44.5631h0c0-.5795.4697-1.0492,1.0492-1.0492h4.1967c.5794,0,1.0491.4698,1.0492,1.0492h0c0,.5795-.4697,1.0492-1.0492,1.0492h-4.1967c-.5794,0-1.0491-.4696-1.0492-1.049v-.0002Z"/>
    <path d="m18,42.5319c-2.4819-1.901-4.8514.3691-5,.4681" fill="none" stroke="#000" stroke-linecap="round" stroke-linejoin="round" stroke-width="2"/>
  </g>
</svg>

<svg id="emoji" viewBox="0 0 72 72" xmlns="http://www.w3.org/2000/svg">
  <g id="grid">
    <path fill="#b3b3b3" d="M68,3.8824v64H4v-64H68m4-4H0v72H72v-72Z"/>
    <path fill="none" stroke="#00a5ff" stroke-miterlimit="10" stroke-width="0.1" d="M12.923,10.8407H59.0769A1.9231,1.9231,0,0,1,61,12.7638V58.9176a1.9231,1.9231,0,0,1-1.9231,1.9231H12.9231A1.9231,1.9231,0,0,1,11,58.9176V12.7637A1.923,1.923,0,0,1,12.923,10.8407Z"/>
    <rect x="16" y="3.8824" rx="2.2537" width="40" height="64" fill="none" stroke="#00a5ff" stroke-miterlimit="10" stroke-width="0.1"/>
    <rect x="16" y="3.8824" rx="2.2537" width="40" height="64" transform="translate(71.8824 -0.1176) rotate(90)" fill="none" stroke="#00a5ff" stroke-miterlimit="10" stroke-width="0.1"/>
    <circle cx="36" cy="35.8824" r="29" fill="none" stroke="#00a5ff" stroke-miterlimit="10" stroke-width="0.1"/>
  </g>
  <g id="color">
    <path fill="#6a462f" d="M20.2992,19s-1.1617,18.5109,9.2929,25.5631H19S11.9026,37.4081,20.2992,19Z"/>
    <polygon fill="#6a462f" points="44 38 64.22 38 64.22 43.514 43 43.514 43 38 44 38"/>
    <circle cx="17.0818" cy="49.5632" r="5.0001" fill="#d0cfce"/>
    <circle cx="54.6092" cy="49.5632" r="5.0001" fill="#d0cfce"/>
  </g>
  <g id="line">
    <polyline fill="none" stroke="#000" stroke-linecap="round" stroke-linejoin="round" stroke-width="2" points="23.718 37 27.588 37 28.389 29.575"/>
    <path fill="none" stroke="#000" stroke-linecap="round" stroke-linejoin="round" stroke-width="2.0875" d="M64.22,44.5631H19L17.4022,41.6A11.7019,11.7019,0,0,1,16,36.0458v-.7653A13.8765,13.8765,0,0,1,16.6,30.8L19,22c0-1.4712,1.5288-4,3-4l39.5557.3893A2.6638,2.6638,0,0,1,64.22,21.0531Z"/>
    <line x1="45.7985" x2="25.2182" y1="48.4706" y2="48.4706" fill="none" stroke="#000" stroke-linecap="round" stroke-linejoin="round" stroke-width="2"/>
    <circle cx="17.0818" cy="49.5632" r="5.0001" fill="none" stroke="#000" stroke-linecap="round" stroke-linejoin="round" stroke-width="2"/>
    <circle cx="54.6092" cy="49.5632" r="5.0001" fill="none" stroke="#000" stroke-linecap="round" stroke-linejoin="round" stroke-width="2"/>
    <line x1="43" x2="43" y1="19" y2="44" fill="none" stroke="#000" stroke-linecap="round" stroke-linejoin="round" stroke-width="2.0875"/>
    <line x1="44" x2="64.2195" y1="35" y2="35" fill="none" stroke="#000" stroke-linecap="round" stroke-linejoin="round" stroke-width="2.0875"/>
    <polygon fill="none" stroke="#000" stroke-linecap="round" stroke-linejoin="round" stroke-width="2.0875" points="44 38 64.22 38 64.22 43.514 43 43.514 43 38 44 38"/>
    <line x1="61" x2="62" y1="37" y2="32" fill="none" stroke="#000" stroke-linecap="round" stroke-linejoin="round" stroke-width="2.0875"/>
    <path fill="none" stroke="#000" stroke-linecap="round" stroke-linejoin="round" stroke-width="2" d="M20.2992,19s-1.1617,18.5109,9.2929,25.5631"/>
    <line x1="25.6419" x2="25.6419" y1="37" y2="39.7847" fill="none" stroke="#000" stroke-linecap="round" stroke-linejoin="round" stroke-width="2"/>
    <path d="M60.072,44.5631h0a1.0492,1.0492,0,0,1,1.0492-1.0492h4.1967a1.0493,1.0493,0,0,1,1.0492,1.0492h0a1.0492,1.0492,0,0,1-1.0492,1.0492H61.1212A1.0491,1.0491,0,0,1,60.072,44.5631Z"/>
    <path fill="none" stroke="#000" stroke-linecap="round" stroke-linejoin="round" stroke-width="2" d="M18,42.5319c-2.4819-1.901-4.8514.3691-5,.4681"/>
  </g>
</svg>
